X:255
T:Reel Eug\`ene
C: R-143
R:reel
Z:Transcribed to abc by Mary Lou Knack
M:C|
K:D
|: "Bm"B2Bc dcB2 | "Em"e2ef gece | "F#7"f2fg fede | fbbf bfdc | "Bm"B2Bc dcB2 | "Em"e2ef gece |
| "F#7"f2fg fedc |1 "Bm"B4 "F#7"F4 :|2 "G"B4 "A7"A4 |: "D"f2fe d2dB | AAdf "B7"b2f2 | "Em"a2ag "(A7)"e2 (3cec |
| "A7"Aceg (3faf e2 | "D"f2fe d2dB | AAdf "B7"b2f2 | "Em"a2ag "A7"egec | dfec "D"d4 :|
